X: 18
M: 2/2
L: 1/8
K: G
|:\
d4 d2d2 | B3c d2d2 |\
e2d2 c2B2 | A6 B2 |\
c3d (ef)g2 | G3A (Bc)d2 |
c2B2 (AG)AB | G8 :|\
|:\
d2dd d2d2 | e2f2 g4 |\
d3c (Bc)d2 | e3d (cd)(Bc) |\

